apps/web/src/assets/svgs/estimation.svg

<?xml version="1.0" encoding="UTF-8" standalone="no"?>
<!-- Created with Inkscape (http://www.inkscape.org/) -->

<svg
   width="8mm"
   height="8mm"
   viewBox="0 0 8 8"
   version="1.1"
   id="svg1"
   sodipodi:docname="estimation_flat.svg"
   inkscape:version="1.3.2 (091e20ef0f, 2023-11-25)"
   xmlns:inkscape="http://www.inkscape.org/namespaces/inkscape"
   xmlns:sodipodi="http://sodipodi.sourceforge.net/DTD/sodipodi-0.dtd"
   xmlns="http://www.w3.org/2000/svg"
   xmlns:svg="http://www.w3.org/2000/svg">
  <sodipodi:namedview
     id="namedview1"
     pagecolor="#ffffff"
     bordercolor="#000000"
     borderopacity="0.25"
     inkscape:showpageshadow="2"
     inkscape:pageopacity="0.0"
     inkscape:pagecheckerboard="0"
     inkscape:deskcolor="#d1d1d1"
     inkscape:document-units="mm"
     inkscape:zoom="13.046878"
     inkscape:cx="-0.91976024"
     inkscape:cy="15.022751"
     inkscape:window-width="2560"
     inkscape:window-height="1515"
     inkscape:window-x="0"
     inkscape:window-y="1415"
     inkscape:window-maximized="1"
     inkscape:current-layer="g458" />
  <defs
     id="defs1" />
  <g
     inkscape:label="Capa 1"
     inkscape:groupmode="layer"
     id="layer1"
     transform="translate(-178.87986,-64.491565)">
    <g
       id="g458"
       transform="translate(414.31666,-105.62785)">
      <path
         id="path455-7"
         style="color:#000000;fill:#000000;stroke-linecap:round;stroke-linejoin:round;-inkscape-stroke:none"
         d="M -230.13066 170.14112 C -230.18578 170.14295 -230.2416 170.15036 -230.29706 170.16386 L -233.03901 170.8279 C -233.45171 170.92775 -233.71924 171.32732 -233.66998 171.73999 L -234.96086 172.48826 C -235.35546 172.71709 -235.49427 173.23095 -235.26782 173.62669 L -232.94548 177.68174 C -232.71874 178.07753 -232.20329 178.21582 -231.8086 177.98612 L -231.8086 177.98819 L -231.32026 177.70293 A 0.30000001 0.30000001 0 0 0 -231.31819 177.7019 C -231.26266 177.71328 -231.20539 177.71955 -231.14662 177.71895 L -228.32612 177.69518 C -227.87 177.69118 -227.4952 177.31339 -227.4962 176.85751 L -227.50964 172.18544 C -227.51064 171.72986 -227.88965 171.35384 -228.34576 171.35758 L -228.34783 171.35758 L -229.1545 171.3643 L -229.29299 170.77932 C -229.38479 170.39093 -229.74486 170.12831 -230.13066 170.14112 z M -230.10638 170.73902 C -229.99665 170.73358 -229.90394 170.80356 -229.87693 170.91782 L -229.76996 171.36947 L -231.16781 171.38084 C -231.62391 171.38484 -231.99719 171.76261 -231.99618 172.21851 L -231.9843 176.2777 C -231.98911 176.26588 -231.99309 176.25305 -231.99618 176.23997 L -233.07054 171.69348 C -233.10134 171.56271 -233.02672 171.44182 -232.89639 171.41029 L -230.15444 170.74625 C -230.13821 170.7423 -230.12205 170.73979 -230.10638 170.73902 z M -228.34163 171.95703 C -228.20821 171.95603 -228.10947 172.05132 -228.10908 172.18544 L -228.09771 176.85957 C -228.09741 176.99392 -228.19562 177.09464 -228.32974 177.09573 L -231.15231 177.11899 C -231.2857 177.11999 -231.3824 177.02268 -231.38278 176.88851 L -231.39622 172.21696 C -231.39652 172.08259 -231.29625 171.98138 -231.16213 171.98028 L -228.34163 171.95703 z M -233.53149 172.35339 L -232.58013 176.37898 C -232.50708 176.68786 -232.2665 176.91827 -231.97551 176.99238 C -231.96029 177.11216 -231.91846 177.22379 -231.85717 177.32259 L -232.10935 177.46884 C -232.22478 177.53604 -232.35738 177.49945 -232.42406 177.38305 L -234.74589 173.33007 L -234.74589 173.328 C -234.81109 173.21186 -234.7754 173.0745 -234.6601 173.00761 L -233.53149 172.35339 z " />
    </g>
  </g>
</svg>

<svg xmlns="http://www.w3.org/2000/svg" width="8mm" height="8mm" viewBox="0 0 8 8"><path d="M-230.13 170.141a1 1 0 0 0-.167.023l-2.742.664a.84.84 0 0 0-.631.912l-1.29.748a.84.84 0 0 0-.308 1.139l2.323 4.055a.834.834 0 0 0 1.136.304v.002l.489-.285.002-.001a1 1 0 0 0 .171.017l2.82-.024a.84.84 0 0 0 .83-.837l-.013-4.673a.835.835 0 0 0-.836-.827h-.002l-.806.006-.139-.585a.84.84 0 0 0-.838-.638m.024.598a.22.22 0 0 1 .23.179l.106.451-1.398.012a.84.84 0 0 0-.828.838l.012 4.059-.012-.038-1.075-4.547a.23.23 0 0 1 .175-.283l2.742-.664a.3.3 0 0 1 .048-.007m1.764 1.218a.22.22 0 0 1 .233.228l.011 4.675a.23.23 0 0 1-.232.236l-2.822.023a.22.22 0 0 1-.23-.23l-.014-4.672c0-.134.1-.236.234-.237zm-5.19.396.952 4.026c.073.309.314.54.604.613q.026.181.119.33l-.252.147a.22.22 0 0 1-.315-.086l-2.322-4.053v-.002a.23.23 0 0 1 .086-.32z" style="color:#000;fill:#000;stroke-linecap:round;stroke-linejoin:round;-inkscape-stroke:none" transform="translate(235.437 -170.12)"/></svg>
